src/components/BookMarkIcon.svg

<svg width="42" height="65" viewBox="0 0 42 65" fill="current" xmlns="http://www.w3.org/2000/svg">
<path d="M7.97544 54.024V56.232H5.97544V54.024H7.97544ZM13.4794 52.84V54.424H0.519438V52.84H13.4794ZM11.9114 55.688V60.344H9.94344V57.24H1.95944V55.688H11.9114ZM4.13544 46.376V47.672H9.86344V46.376H11.8314V51.88H2.18344V46.376H4.13544ZM4.13544 50.328H9.86344V49.144H4.13544V50.328ZM21.7998 47.352V56.84H14.9678V47.352H21.7998ZM16.9198 48.92V55.272H19.8478V48.92H16.9198ZM25.7198 46.008V60.344H23.7358V46.008H25.7198ZM27.8318 51.448V53.08H25.2878V51.448H27.8318ZM39.0002 47.256V48.856H29.9602V47.256H39.0002ZM41.4642 56.984V58.616H28.5042V56.984H41.4642ZM40.1202 47.256V48.936C40.1202 50.312 40.0829 51.5067 40.0082 52.52C39.9442 53.5333 39.7629 54.728 39.4642 56.104L37.5122 55.928C37.8002 54.6587 37.9815 53.5173 38.0562 52.504C38.1309 51.4907 38.1682 50.3013 38.1682 48.936V47.256H40.1202ZM38.5682 52.648L29.8002 53.096L29.5602 51.496L38.5682 51.208V52.648Z" fill="current"/>
<path d="M39.3915 10.9599C39.3915 13.8511 38.2814 16.6282 36.2989 18.6825C31.7354 23.4127 27.3092 28.3452 22.5752 32.904C21.4901 33.9337 19.7688 33.8962 18.7305 32.8198L5.09182 18.6825C0.969392 14.4092 0.969392 7.51051 5.09182 3.2373C9.25477 -1.0779 16.0367 -1.0779 20.1996 3.2373L20.6954 3.75115L21.1908 3.2376C23.1868 1.16755 25.9051 0 28.7448 0C31.5845 0 34.3027 1.16744 36.2989 3.2373C38.2815 5.29174 39.3915 8.06866 39.3915 10.9599Z" fill="current"/>
</svg>

<svg xmlns="http://www.w3.org/2000/svg" width="42" height="65" fill="current">
<path fill="#B6B6B6" d="M7.975 54.024v2.208h-2v-2.208h2Zm5.504-1.184v1.584H.52V52.84h12.96Zm-1.568 2.848v4.656H9.943V57.24H1.96v-1.552h9.952Zm-7.776-9.312v1.296h5.728v-1.296h1.968v5.504H2.183v-5.504h1.952Zm0 3.952h5.728v-1.184H4.135v1.184ZM21.8 47.352v9.488h-6.832v-9.488H21.8Zm-4.88 1.568v6.352h2.928V48.92H16.92Zm8.8-2.912v14.336h-1.984V46.008h1.984Zm2.112 5.44v1.632h-2.544v-1.632h2.544ZM39 47.256v1.6h-9.04v-1.6H39Zm2.464 9.728v1.632h-12.96v-1.632h12.96Zm-1.344-9.728v1.68c0 1.376-.037 2.57-.112 3.584-.064 1.013-.245 2.208-.544 3.584l-1.952-.176c.288-1.27.47-2.41.544-3.424a49.31 49.31 0 0 0 .112-3.568v-1.68h1.952Zm-1.552 5.392-8.768.448-.24-1.6 9.008-.288v1.44ZM39.392 10.96c0 2.891-1.11 5.668-3.093 7.723-4.564 4.73-8.99 9.662-13.724 14.221a2.735 2.735 0 0 1-3.845-.084L5.092 18.683C.969 14.409.969 7.51 5.092 3.237a10.434 10.434 0 0 1 15.108 0l.495.514.496-.513C23.187 1.168 25.905 0 28.745 0s5.558 1.167 7.554 3.237c1.983 2.055 3.093 4.832 3.093 7.723Z"/>
</svg>
